X:261
T:Earl St Vincent’s Hornpipe TS.261
M:C|
L:1/8
Q:1/2=84
S:Thomas Sands’ MS,1810,Lincolnshire
R:.hornpipe
O:England;Lincolnshire
Z:vmp.Ruairidh Greig, 2011
K:Bb
f>e|d2B2B2d>B|c>BA>GF2G>E|D>FB>F G>ec>A|B2B2B2f>e|
d2B2B2g>f|=e2c2c2d>B|Acfc dbg=e|f2f2f2:|
|:f>e|d(BAB) d(BAB)|G(EDE) G(EDE)|cded edcB|A>Bc>AF2f>g|
.f(BAB) .g(BAB)|.a(BAB) b(BAB)|GBcd ecAc|B2B2B2:|]

